dist/img/icons/arror-circle.svg

<svg width="16" height="15" viewBox="0 0 16 15" fill="none" xmlns="http://www.w3.org/2000/svg">
<path d="M1.8216 6.26944C2.33788 6.26944 2.80422 5.97989 3.00392 5.53506C3.82847 3.70004 5.76731 2.40682 8.0276 2.40682C9.27336 2.40682 10.4155 2.80566 11.3311 3.46717L10.6134 3.57095C10.3683 3.60645 10.1776 3.78812 10.1444 4.01773C10.1111 4.24722 10.2435 4.46987 10.4696 4.56475L14.4163 6.22329C14.5893 6.29586 14.7897 6.28191 14.9492 6.1862C15.1084 6.09033 15.2051 5.9258 15.2062 5.74878L15.2266 1.68668C15.228 1.4556 15.0667 1.25123 14.8303 1.18387C14.5935 1.11651 14.3377 1.20201 14.2007 1.39436L13.6567 2.15803C12.2063 0.824407 10.2189 0 8.0276 0C4.70499 0 1.8483 1.89529 0.629922 4.58907C0.460708 4.96245 0.503358 5.38999 0.74294 5.72778C0.982522 6.0657 1.38749 6.26944 1.8216 6.26944Z" fill="white"/>
<path d="M15.3124 9.27213C15.0728 8.93418 14.6678 8.73047 14.2337 8.73047C13.7174 8.73047 13.2511 9.02002 13.0514 9.46485C12.2268 11.2999 10.2879 12.5931 8.02768 12.5931C6.78188 12.5931 5.63977 12.1942 4.72409 11.5327L5.44182 11.429C5.68694 11.3935 5.87764 11.2118 5.91093 10.9822C5.94419 10.7527 5.81179 10.53 5.58572 10.4352L1.63896 8.77662C1.46593 8.70408 1.26553 8.71797 1.10604 8.81372C0.94688 8.90959 0.850145 9.07411 0.849123 9.2511L0.828622 13.3132C0.827238 13.5443 0.988475 13.7486 1.22493 13.816C1.46174 13.8834 1.7176 13.7978 1.85458 13.6054L2.39858 12.8418C3.84892 14.1755 5.83634 14.9999 8.02765 14.9999C11.3503 14.9999 14.2069 13.1046 15.4253 10.4108C15.5946 10.0375 15.5519 9.60995 15.3124 9.27213Z" fill="white"/>
</svg>

<svg width="16" height="15" viewBox="0 0 16 15" fill="none" xmlns="http://www.w3.org/2000/svg"><path d="M1.822 6.27c.516 0 .982-.29 1.182-.735.824-1.835 2.763-3.128 5.024-3.128 1.245 0 2.387.399 3.303 1.06l-.718.104a.541.541 0 0 0-.469.447c-.033.23.1.452.326.547l3.946 1.658a.595.595 0 0 0 .533-.037.517.517 0 0 0 .257-.437l.02-4.062a.528.528 0 0 0-.396-.503.58.58 0 0 0-.63.21l-.543.764C12.207.824 10.219 0 8.027 0 4.706 0 1.849 1.895.63 4.59c-.17.372-.127.8.113 1.138.24.338.644.541 1.079.541zM15.312 9.272a1.32 1.32 0 0 0-1.078-.542c-.517 0-.983.29-1.183.735-.824 1.835-2.763 3.128-5.023 3.128a5.625 5.625 0 0 1-3.304-1.06l.718-.104a.542.542 0 0 0 .469-.447.517.517 0 0 0-.325-.547L1.639 8.777a.595.595 0 0 0-.533.037.517.517 0 0 0-.257.437l-.02 4.062a.528.528 0 0 0 .396.503.58.58 0 0 0 .63-.21l.544-.764C3.849 14.175 5.836 15 8.028 15c3.322 0 6.179-1.895 7.397-4.59.17-.373.127-.8-.113-1.138z" fill="#fff"/></svg>
